X:594
T: DA KOM ALL EIN KANOENNEKEN
N: E1907
O: Europa, Mitteleuropa, Deutschland, Westfalen
R: Kinder - Lied, Tanz, Spiel, Brautwerbung
M: 2/4
L: 1/8
K: G
D | GGGG | FED2 |
EEFF | G2z
D | GGGG | FED2 |
EEFF | G2z

@@@ Tune index: 5278
